svgs/thin/person-snowmobiling.svg

<svg xmlns="http://www.w3.org/2000/svg" viewBox="0 0 640 512"><!--! Font Awesome Pro 6.0.0-alpha3 by @fontawesome - https://fontawesome.com License - https://fontawesome.com/license (Commercial License) --><path d="M104 256c2.938 0 5.781-1.625 7.172-4.469l42.67-86.41c7.609-15.06 22.09-25.69 38.69-28.44c16.77-2.812 33.81 2.812 45.61 14.59l52.39 54.28C292 207.1 294.1 208 296.3 208H320c4.422 0 8-3.594 8-8S324.4 192 320 192H299.7L249.5 140.1C234 124.5 211.8 117.5 189.1 120.9C168.3 124.5 149.5 138.3 139.5 157.1l-42.7 86.5C94.88 248.4 96.5 253.2 100.5 255.2C101.6 255.8 102.8 256 104 256zM637.7 442.3c-3.125-3.125-8.188-3.125-11.31 0l-9.141 9.125c-15.85 15.87-34.76 27.34-55.21 34.84l-71.64-78.8l75.05-48.35c6.609-4.281 10.56-11.41 10.56-19.12V267.4c0-8.875-5-16.78-13.23-20.69l-172.5-76.7l-30.78-76.96c-1.641-4.094-6.281-6.094-10.39-4.469c-4.109 1.656-6.094 6.312-4.453 10.41l30.2 75.51L284.8 280L102.1 280.1c-14.95 0-28.33 8-34.89 20.81l-24.52 47.38c-2.031 3.938-.4844 8.75 3.438 10.78c3.859 2.062 8.734 .5313 10.78-3.406l24.53-47.44c3.828-7.469 11.73-12.12 20.66-12.12L292.1 296l94.06-110.3l169.9 75.47c2.406 1.156 3.906 3.5 3.906 6.156v72.66c0 2.25-1.219 4.375-3.234 5.688L472.5 400H352c-4.422 0-8 3.594-8 8S347.6 416 352 416h124.5l68.58 75.44C533.6 494.2 521.8 496 509.7 496H424c-4.422 0-8 3.594-8 8S419.6 512 424 512h85.72c67.77 0 111.1-42.4 118.8-49.22l9.141-9.125C640.8 450.5 640.8 445.5 637.7 442.3zM256 384H64c-35.35 0-64 28.65-64 64s28.65 64 64 64h192c35.35 0 64-28.65 64-64S291.3 384 256 384zM256 496H64c-26.47 0-48-21.53-48-48s21.53-48 48-48h192c26.47 0 48 21.53 48 48S282.5 496 256 496zM236 104C264.7 104 288 80.72 288 52S264.7 0 236 0S184 23.28 184 52S207.3 104 236 104zM236 16C255.9 16 272 32.15 272 52c0 19.85-16.15 36-36 36c-19.85 0-36-16.15-36-36C200 32.15 216.2 16 236 16z"/></svg>

<svg xmlns="http://www.w3.org/2000/svg" viewBox="0 0 640 512"><!-- Font Awesome Pro 6.0.0-alpha2 by @fontawesome - https://fontawesome.com License - https://fontawesome.com/license (Commercial License) --><path d="M104 256C106.938 256 109.781 254.375 111.172 251.531L153.844 165.125C161.453 150.063 175.938 139.438 192.531 136.688C209.297 133.875 226.344 139.5 238.141 151.281L290.531 205.563C292.031 207.125 294.109 208 296.281 208H320C324.422 208 328 204.406 328 200S324.422 192 320 192H299.672L249.547 140.062C234.016 124.531 211.766 117.531 189.953 120.875C168.312 124.469 149.469 138.312 139.531 157.969L96.828 244.469C94.875 248.406 96.5 253.219 100.453 255.188C101.594 255.75 102.797 256 104 256ZM637.656 442.344C634.531 439.219 629.469 439.219 626.344 442.344L617.203 451.469C601.354 467.336 582.447 478.807 561.994 486.305L490.357 407.506L565.406 359.156C572.016 354.875 575.969 347.75 575.969 340.031V267.375C575.969 258.5 570.969 250.594 562.734 246.688L390.205 169.988L359.422 93.031C357.781 88.938 353.141 86.938 349.031 88.563C344.922 90.219 342.938 94.875 344.578 98.969L374.781 174.475L284.766 280H105.797L105.984 280.125H102.125C87.172 280.125 73.797 288.125 67.234 300.937L42.719 348.312C40.687 352.25 42.234 357.062 46.156 359.094C50.016 361.156 54.891 359.625 56.938 355.688L81.469 308.25C85.297 300.781 93.203 296.125 102.125 296.125H158.75L158.562 296H292.141L386.203 185.75L556.062 261.219C558.469 262.375 559.969 264.719 559.969 267.375V340.031C559.969 342.281 558.75 344.406 556.734 345.719L472.453 400H352C347.578 400 344 403.594 344 408S347.578 416 352 416H476.465L545.043 491.438C533.562 494.166 521.82 496 509.719 496H424C419.578 496 416 499.594 416 504S419.578 512 424 512H509.719C577.487 512 621.706 469.601 628.516 462.781L637.656 453.656C640.781 450.531 640.781 445.469 637.656 442.344ZM256 384H64C28.654 384 0 412.654 0 448S28.654 512 64 512H256C291.348 512 320 483.346 320 448S291.348 384 256 384ZM256 496H64C37.533 496 16 474.467 16 448S37.533 400 64 400H256C282.467 400 304 421.533 304 448S282.467 496 256 496ZM236 104C264.719 104 288 80.719 288 52S264.719 0 236 0S184 23.281 184 52S207.281 104 236 104ZM236 16C255.852 16 272 32.148 272 52C272 71.85 255.852 88 236 88C216.15 88 200 71.85 200 52C200 32.148 216.15 16 236 16Z"/></svg>
